X: 40386
T: Tom Hind's
R: jig
M: 6/8
K: Dmajor
E3|:FED EDB,|DB,A, A,B,D|~E3 EDE|FAB AFE|
FED EDB,|DB,A, A,B,D||~E3 EFE|~D3 D2 E:|
FAB AFE|FAB dcd|EDE FED|DB,A, A,B,D|
[1 FAB AFE|FAB dcd|A,B,A, EFE|~D3 D2 E:|
[2 FED EDB,|DB,A, A,B,D|~E3 EFE|~D3 D3||

